icons/bricks-outline.svg

<svg xmlns="http://www.w3.org/2000/svg" width="24" height="24" viewBox="0 0 24 24">
    <path fill="#3A3A47" fill-rule="evenodd" d="M11 16c1.333 0 2 .667 2 2v2c0 1.333-.667 2-2 2H7c-1.333 0-2-.667-2-2v-2c0-1.333.668-2 2.004-2H11zm0 2H7v2h4v-2zm4-9c1.333 0 2 .667 2 2v2c0 1.333-.667 2-2 2h-4c-1.333 0-2-.667-2-2v-2c0-1.333.668-2 2.004-2H15zm0 2h-4v2h4v-2zm-4-9c1.333 0 2 .667 2 2v2c0 1.333-.667 2-2 2H7c-1.333 0-2-.667-2-2V4c0-1.333.668-2 2.004-2H11zm0 2H7v2h4V4zm9 12c1.333 0 2 .667 2 2v2c0 1.333-.667 2-2 2h-4c-1.333 0-2-.667-2-2v-2c0-1.333.668-2 2.004-2H20zM2 16c1.333.07 2 .737 2 2v2c0 1.333-.667 2-2 2v-6zm18 2h-4v2h4v-2zM2 2c1.333.07 2 .737 2 2v2c0 1.333-.667 2-2 2V2zm4 7c1.333 0 2 .667 2 2v2c0 1.333-.667 2-2 2H2l.001-2H6v-2H2.003l.001-2H6z"/>
</svg>

<svg width="24" height="24" viewBox="0 0 24 24" fill="none" xmlns="http://www.w3.org/2000/svg">
<path fill-rule="evenodd" clip-rule="evenodd" d="M7.004 2H11C12.333 2 13 2.667 13 4V6C13 7.333 12.333 8 11 8H7C5.667 8 5 7.333 5 6V4C5 2.667 5.668 2 7.004 2ZM7 4V6H11V4H7ZM11.004 9H15C16.333 9 17 9.667 17 11V13C17 14.333 16.333 15 15 15H11C9.667 15 9 14.333 9 13V11C9 9.667 9.668 9 11.004 9ZM11 11V13H15V11H11ZM7.004 16H11C12.333 16 13 16.667 13 18V20C13 21.333 12.333 22 11 22H7C5.667 22 5 21.333 5 20V18C5 16.667 5.668 16 7.004 16ZM7 18V20H11V18H7ZM16.004 16H20C21.333 16 22 16.667 22 18V20C22 21.333 21.333 22 20 22H16C14.667 22 14 21.333 14 20V18C14 16.667 14.668 16 16.004 16ZM16 18V20H20V18H16ZM2 2C3.333 2.07 4 2.737 4 4V6C4 7.333 3.333 8 2 8V2ZM2 16C3.333 16.07 4 16.737 4 18V20C4 21.333 3.333 22 2 22V16ZM2.001 13H6V11H2.003L2.004 9H6C7.333 9 8 9.667 8 11V13C8 14.333 7.333 15 6 15H2L2.001 13Z" fill="#3A3A47"/>
</svg>
